Papirus/22x22/panel/viber-notification.svg

<?xml version="1.0" encoding="UTF-8" standalone="no"?>
<svg xmlns:dc="http://purl.org/dc/elements/1.1/" xmlns:cc="http://creativecommons.org/ns#" xmlns:rdf="http://www.w3.org/1999/02/22-rdf-syntax-ns#" xmlns:svg="http://www.w3.org/2000/svg" xmlns="http://www.w3.org/2000/svg" version="1.1" id="svg2" width="22" height="22" viewBox="0 0 32.65625 32.65625">
    <metadata id="metadata16">
        <rdf:RDF>
            <cc:Work rdf:about="">
                <dc:format>
                    image/svg+xml
                </dc:format>
                <dc:type rdf:resource="http://purl.org/dc/dcmitype/StillImage"/>
                <dc:title/>
            </cc:Work>
        </rdf:RDF>
    </metadata>
    <path id="path4151" transform="scale(1.4843749,1.4843749)" d="M 11.533203 3.0039062 C 11.102045 2.9911062 11.015257 3.0060283 10.890625 3.1171875 C 10.687172 3.2950401 10.697342 3.6774857 10.908203 3.8398438 C 11.022056 3.9247279 11.10876 3.9443616 11.611328 3.9726562 C 13.097476 4.0575406 14.232646 4.450133 15.330078 5.2558594 C 16.646457 6.2192277 17.471287 7.5613453 17.783203 9.2421875 C 17.862699 9.6706507 17.903413 10.028869 17.929688 10.583984 C 17.945856 10.945753 17.95803 11.026172 18.005859 11.119141 C 18.156765 11.400741 18.59807 11.442017 18.798828 11.191406 C 18.904597 11.06206 18.917301 10.961808 18.898438 10.509766 C 18.847911 9.1853017 18.554432 7.9812974 18.039062 6.96875 C 17.669211 6.2431918 17.321907 5.7752979 16.693359 5.1582031 C 16.021696 4.5047295 15.514303 4.1468624 14.720703 3.7675781 C 13.914303 3.3829044 13.179005 3.1677985 12.269531 3.0566406 C 12.089658 3.0357564 11.758214 3.0113168 11.533203 3.0039062 z M 11.779297 4.8925781 C 11.630244 4.9154834 11.543325 4.9756571 11.474609 5.0800781 L 11.472656 5.0800781 C 11.346004 5.2687097 11.360816 5.4963151 11.511719 5.6640625 C 11.609402 5.7752204 11.75235 5.826772 12.011719 5.8476562 C 12.728519 5.9042457 13.513991 6.1334646 14.046875 6.4433594 C 14.665316 6.8024331 15.172517 7.3181804 15.521484 7.9433594 C 15.828011 8.4910647 16.005859 9.1962659 16.005859 9.8652344 C 16.005859 10.299087 16.06608 10.458215 16.269531 10.558594 C 16.391469 10.620573 16.611769 10.626094 16.714844 10.574219 C 16.809833 10.52504 16.92072 10.407891 16.955078 10.320312 C 16.992131 10.227345 16.991389 9.666575 16.957031 9.359375 C 16.859348 8.5199644 16.574618 7.7365862 16.117188 7.0703125 C 15.302703 5.8873233 14.059794 5.1600875 12.455078 4.9296875 C 12.13912 4.8832033 11.92835 4.8696729 11.779297 4.8925781 z M 12.339844 6.8242188 C 12.288981 6.8300124 12.253651 6.8429349 12.203125 6.8671875 C 11.936346 7.0012507 11.862014 7.3655069 12.054688 7.5898438 C 12.160456 7.7111069 12.258596 7.7467562 12.583984 7.7851562 C 13.276532 7.8680201 13.684873 8.1209539 13.917969 8.609375 C 14.026432 8.8391013 14.090642 9.087722 14.125 9.4414062 C 14.153968 9.7075115 14.193661 9.8054691 14.320312 9.8984375 C 14.494797 10.029806 14.781879 10.024216 14.9375 9.8847656 C 15.1039 9.7352077 15.133911 9.5551558 15.0625 9.0957031 C 14.956732 8.3910294 14.716586 7.8990249 14.277344 7.4941406 C 13.93646 7.1815511 13.536383 6.9873694 13.015625 6.8789062 C 12.907627 6.856102 12.705762 6.8336902 12.568359 6.8261719 L 12.566406 6.8261719 C 12.456961 6.8199066 12.390272 6.8184587 12.339844 6.8242188 z " style="fill:#5294e2;fill-opacity:1;stroke:none;opacity:1"/>
    <path id="path4149" d="m 8.7438959,4.85321 c -0.178,-0.01625 -0.350863,-0.015403 -0.478363,0.011597 l -0.0029,0 c -0.3729999,0.077 -0.8405694,0.3482894 -1.8525693,1.0842894 -0.608,0.445 -1.4420309,1.2435517 -1.6380309,1.5655516 -0.4550001,0.7630001 -0.4293357,1.4110689 0.1246642,2.9020691 0.9500001,2.557 2.3382079,5.020681 4.1632078,7.398681 3.4929996,4.549999 7.8928616,7.858514 13.4028606,10.077514 0.702001,0.284 0.931477,0.331412 1.481476,0.304413 0.667001,-0.031 1.172361,-0.233482 1.887361,-0.762482 0.789,-0.586 1.919167,-1.958429 2.209167,-2.690429 0.274999,-0.694 0.202158,-1.32388 -0.205842,-1.81488 -0.232,-0.272 -1.942614,-1.637975 -2.742614,-2.185975 -0.608,-0.414 -1.548133,-0.984156 -1.980134,-1.203156 -0.568999,-0.283999 -1.136214,-0.331857 -1.690214,-0.147857 -0.436001,0.146 -0.578754,0.270398 -1.214753,1.0524 -0.330001,0.399 -0.633607,0.760371 -0.672608,0.794372 -0.043,0.035 -0.181211,0.110151 -0.31021,0.168151 -0.514001,0.234 -1.216723,0.09323 -2.365723,-0.466766 -0.895001,-0.432999 -1.688059,-0.980888 -2.586059,-1.785888 -0.765,-0.682001 -1.536537,-1.574152 -1.968537,-2.267152 -0.557,-0.892999 -0.981717,-2.052328 -0.985717,-2.693328 0,-0.276 0.114127,-0.667852 0.255127,-0.866852 0.055,-0.08 0.403977,-0.383406 0.776977,-0.678405 0.93,-0.732 1.138038,-0.9604 1.264038,-1.3974 0.122,-0.406 -0.0092,-0.956015 -0.397186,-1.6960146 -0.679,-1.296 -2.753298,-3.8889479 -3.4992981,-4.3719479 -0.122,-0.077 -0.3355646,-0.1830344 -0.4725647,-0.2290345 -0.1414999,-0.05 -0.3235563,-0.085221 -0.5015563,-0.101471 z" style="fill:#ffffff;fill-opacity:1;stroke:none;opacity:1"/>
</svg>

<?xml version="1.0" encoding="UTF-8" standalone="no"?>
<svg id="svg2" xmlns:rdf="http://www.w3.org/1999/02/22-rdf-syntax-ns#" xmlns="http://www.w3.org/2000/svg" height="22" viewBox="0 0 32.65625 32.65625" width="22" version="1.1" xmlns:cc="http://creativecommons.org/ns#" xmlns:dc="http://purl.org/dc/elements/1.1/">
 <metadata id="metadata16">
  <rdf:RDF>
   <cc:Work rdf:about="">
    <dc:format>image/svg+xml</dc:format>
    <dc:type rdf:resource="http://purl.org/dc/dcmitype/StillImage"/>
    <dc:title/>
   </cc:Work>
  </rdf:RDF>
 </metadata>
 <path id="path4151" d="m11.533 3.0039c-0.431-0.0128-0.518 0.0021-0.642 0.1133-0.204 0.1778-0.194 0.5603 0.017 0.7226 0.114 0.0849 0.201 0.1046 0.703 0.1329 1.486 0.0848 2.622 0.4774 3.719 1.2832 1.316 0.9633 2.141 2.3054 2.453 3.9863 0.08 0.4285 0.12 0.7868 0.147 1.3418 0.016 0.362 0.028 0.442 0.076 0.535 0.151 0.282 0.592 0.323 0.793 0.072 0.106-0.129 0.118-0.229 0.099-0.681-0.05-1.3247-0.344-2.5287-0.859-3.5412-0.37-0.7256-0.717-1.1935-1.346-1.8106-0.671-0.6535-1.179-1.0113-1.972-1.3906-0.807-0.3847-1.542-0.5998-2.451-0.711-0.18-0.0208-0.512-0.0453-0.737-0.0527zm0.246 1.8887c-0.149 0.0229-0.236 0.0831-0.304 0.1875h-0.002c-0.127 0.1886-0.112 0.4162 0.039 0.584 0.097 0.1111 0.24 0.1627 0.5 0.1836 0.717 0.0565 1.502 0.2858 2.035 0.5957 0.618 0.359 1.126 0.8748 1.474 1.5 0.307 0.5477 0.485 1.2529 0.485 1.9218 0 0.4338 0.06 0.5928 0.264 0.6938 0.121 0.062 0.342 0.067 0.445 0.015 0.095-0.049 0.206-0.166 0.24-0.254 0.037-0.093 0.036-0.6534 0.002-0.9606-0.098-0.8394-0.382-1.6228-0.84-2.2891-0.814-1.183-2.057-1.9102-3.662-2.1406-0.316-0.0465-0.527-0.06-0.676-0.0371zm0.561 1.9316c-0.051 0.0058-0.086 0.0187-0.137 0.043-0.267 0.1341-0.341 0.4983-0.148 0.7226 0.105 0.1213 0.204 0.157 0.529 0.1954 0.693 0.0828 1.101 0.3358 1.334 0.8242 0.108 0.2297 0.173 0.4783 0.207 0.832 0.029 0.2661 0.069 0.3641 0.195 0.457 0.175 0.1316 0.462 0.1256 0.618-0.0136 0.166-0.1496 0.196-0.3296 0.124-0.7891-0.105-0.7047-0.345-1.1967-0.785-1.6016-0.341-0.3125-0.741-0.5067-1.261-0.6152-0.108-0.0228-0.31-0.0452-0.448-0.0527h-0.002c-0.109-0.0063-0.176-0.0077-0.226-0.002z" transform="scale(1.4844)" fill="#5294e2"/>
 <path id="path4149" d="m8.7439 4.8532c-0.178-0.01625-0.35086-0.015403-0.47836 0.011597h-0.0029c-0.373 0.077-0.84057 0.34829-1.8526 1.0843-0.608 0.445-1.442 1.2436-1.638 1.5656-0.455 0.763-0.42934 1.4111 0.12466 2.9021 0.95 2.557 2.3382 5.0207 4.1632 7.3987 3.493 4.55 7.8929 7.8585 13.403 10.078 0.702 0.284 0.93148 0.33141 1.4815 0.30441 0.667-0.031 1.1724-0.23348 1.8874-0.76248 0.789-0.586 1.9192-1.9584 2.2092-2.6904 0.275-0.694 0.20216-1.3239-0.20584-1.8149-0.232-0.272-1.9426-1.638-2.7426-2.186-0.608-0.414-1.5481-0.98416-1.9801-1.2032-0.569-0.284-1.1362-0.33186-1.6902-0.14786-0.436 0.146-0.57875 0.2704-1.2148 1.0524-0.33 0.399-0.63361 0.76037-0.67261 0.79437-0.043 0.035-0.18121 0.11015-0.31021 0.16815-0.514 0.234-1.2167 0.09323-2.3657-0.46677-0.895-0.433-1.6881-0.98089-2.5861-1.7859-0.765-0.682-1.5365-1.5742-1.9685-2.2672-0.557-0.893-0.98172-2.0523-0.98572-2.6933 0-0.276 0.11413-0.66785 0.25513-0.86685 0.055-0.08 0.40398-0.38341 0.77698-0.6784 0.93-0.732 1.138-0.9604 1.264-1.3974 0.122-0.406-0.0092-0.95602-0.39719-1.696-0.679-1.296-2.7533-3.8889-3.4993-4.3719-0.122-0.077-0.33556-0.18303-0.47256-0.22903-0.1415-0.05-0.32356-0.085221-0.50156-0.10147z" fill="#fff"/>
</svg>
